public/images/categories/profits.svg

<?xml version="1.0" encoding="UTF-8" standalone="no"?>
<svg
   width="22"
   height="19"
   viewBox="0 0 22 19"
   fill="currentColor"
   version="1.1"
   id="svg8"
   xmlns="http://www.w3.org/2000/svg"
   xmlns:svg="http://www.w3.org/2000/svg">
  <defs
     id="defs12" />
  <path
     id="path2"
     d="m 15.349609,0 c -0.181,-0.00124399 -0.359387,0.07061773 -0.492187,0.20507812 L 12.117188,2.9804688 c -0.268001,0.27151 -0.267047,0.7099187 0.002,0.9804687 0.2689,0.27056 0.704556,0.27151 0.972656,0 l 1.566406,-1.5898437 0.0078,6.6503906 c 4e-4,0.38314 0.309853,0.6955325 0.689453,0.6953125 0.3795,-2.3e-4 0.685547,-0.3121725 0.685547,-0.6953125 V 2.3691406 l 1.576172,1.5917969 c 0.268499,0.27103 0.704156,0.27103 0.972656,0 0.2684,-0.27103 0.2684,-0.7113919 0,-0.9824219 l -2.75,-2.7753906 C 15.707144,0.0692091 15.530109,-0.00123086 15.349609,0 Z m 5.472657,10.105469 c -0.1679,0.0058 -0.335728,0.04709 -0.486328,0.117187 l -4.470704,2.267578 c 0.0463,0.2572 0.02263,0.514285 -0.04687,0.771485 -0.2317,0.982 -1.158059,1.612994 -2.130859,1.496093 L 9.75,14.244141 c -0.32424,-0.0468 -0.5541725,-0.32895 -0.5078125,-0.65625 0.04636,-0.3274 0.3241775,-0.560472 0.6484375,-0.513672 l 3.935547,0.513672 c 0.3937,0.0468 0.741722,-0.209785 0.857422,-0.583985 0.0925,-0.3741 -0.09195,-0.748372 -0.439453,-0.888672 l -4.076172,-1.730468 c -0.7874502,-0.3506 -1.6912734,-0.3506 -2.5019534,0 L 5.0957031,11.484375 V 17.9375 l 6.3457029,1.005859 c 1.297,0.2104 2.617482,-0.164434 3.613282,-1.052734 l 6.554687,-5.705078 c 0.3473,-0.3505 0.463456,-0.817519 0.347656,-1.261719 -0.0926,-0.3274 -0.324237,-0.584409 -0.648437,-0.724609 -0.1506,-0.07015 -0.318428,-0.09959 -0.486328,-0.09375 z M 0.671875,10.478516 C 0.301262,10.478516 0,10.78235 0,11.15625 v 7.15625 c 0,0.3741 0.301432,0.677734 0.671875,0.677734 H 3.21875 c 0.37061,0 0.671875,-0.303834 0.671875,-0.677734 V 11.15625 C 3.913885,10.78215 3.58936,10.478516 3.21875,10.478516 Z" />
</svg>

<svg width="22" height="19" viewBox="0 0 22 19" fill="currentColor" xmlns="http://www.w3.org/2000/svg">
<path d="M21.9566 10.9234C21.864 10.596 21.6323 10.3388 21.3081 10.1986C21.0069 10.0583 20.6365 10.0817 20.3353 10.2219L15.8653 12.4899C15.9116 12.7471 15.8884 13.0042 15.8189 13.2614C15.5872 14.2434 14.6609 14.8747 13.6881 14.7578L9.75077 14.2434C9.42653 14.1966 9.19487 13.9161 9.24123 13.5888C9.28759 13.2614 9.56548 13.0276 9.88974 13.0744L13.8271 13.5888C14.2208 13.6356 14.5683 13.3784 14.684 13.0042C14.7765 12.6301 14.5914 12.256 14.2439 12.1157L10.1676 10.3855C9.38015 10.0349 8.47688 10.0349 7.6662 10.3855L5.09534 11.4844V17.9375L11.4414 18.9428C12.7384 19.1532 14.0587 18.779 15.0545 17.8907L21.6091 12.1858C21.9564 11.8353 22.0724 11.3676 21.9566 10.9234Z" />
<path d="M3.21937 10.4791H0.671585C0.300972 10.4791 0 10.7831 0 11.157V18.3116C0 18.6857 0.301142 18.9895 0.671585 18.9895H3.21937C3.58998 18.9895 3.89096 18.6855 3.89096 18.3116V11.157C3.91422 10.7829 3.58998 10.4791 3.21937 10.4791Z" />
<path fill-rule="evenodd" clip-rule="evenodd" d="M15.3493 1.60879e-05C15.1683 -0.0012279 14.9902 0.0696956 14.8574 0.204156L12.1171 2.98024C11.8491 3.25175 11.8498 3.69118 12.1188 3.96173C12.3877 4.23229 12.823 4.23152 13.0911 3.96001L14.6589 2.37176L14.6666 9.02229C14.667 9.40543 14.9749 9.71654 15.3545 9.71632C15.734 9.71609 16.0415 9.40543 16.0415 9.02229V2.36956L17.6179 3.96087C17.8864 4.2319 18.3217 4.2319 18.5902 3.96087C18.8586 3.68984 18.8586 3.25041 18.5902 2.97938L15.8402 0.203295C15.7075 0.0693791 15.5298 -0.00121477 15.3493 1.60879e-05Z" />
</svg>
